X:1
T:Title
%%score { ( 1 3 ) | ( 2 4 ) }
L:1/8
M:6/8
K:C
V:1 treble nm="Grand Piano"
V:3 treble 
V:2 bass 
V:4 bass 
V:1
 z3 z2[Q:1/4=90] [EG] | [Ec]2 [Ec] [Ec][GB][FA] | [EG]2 [Ec] C2 D | E3 G3 |[M:5/8] G-G- G3 | %5
[M:1/8] [G,EG] |[M:3/4] [Ec]2 [Ec][Ec] [GB][FA] | [EG]2 c G2 A | B3 d3 |[M:5/8] d-d- d3 | %10
[M:1/8] G |[M:3/4] [Ge]2 [Ge][Ge] [Fd][Ec] | [Ac]2 [Ac] [GB]2 A | G3 F3 |[M:5/8] E-E- E3 | %15
[M:1/8] A |[M:3/4] A2 AA [GB][Ac] | [Ge]2 [Gc] [Ac]2 A | G3 d3 | [Ec]6 |[M:1/8] [CE] | %21
[M:3/4] [B,G]2 DD E[G,DF] | [CE]6 | [B,G]2 DD E[G,DF] |[M:5/8] [CE]-[CE]- [CE]3[K:bass] | %25
[M:1/8] [G,CE] |[M:3/4] E2 z2 z2[K:treble] | A6 | B2 BB AB |[M:5/8] c-c- c3 |[M:1/8] [EAc] | %31
[M:3/4] d2 z2 z2 | e6 | z2 z ^f z2 | g6 |[M:1/8] f |[M:3/4] [ce]4 dc | [^GB]4 _B=B | [Bd]4 cB | %39
[M:5/8] [Ac]-[Ac]- [Ac]3 |[M:1/8] [CG] |[M:3/4] [CFA]2 [FB] [Gc]2 d |[M:7/8] e2 f g3 [Af] | %43
 [Ge]2 [Gc] [Bd] [Bg]3 |[M:3/4] c6 |] %45
V:2
 z3 z2 [C,C] | [C,G,]2 [C,G,] [C,G,][C,C][C,C] | [C,C]2 [C,G,] [E,G,]2 [F,A,C] | [G,C]3 [F,G,B,]3 | %4
[M:5/8] C-C- C3 |[M:1/8] C, |[M:3/4] [C,G,]2 [C,G,][C,G,] [C,C][C,C] | %7
 [C,C]2[K:treble] [G,CE] [CE]2 [C_EG] | [DG]3 [CD^F]3 |[M:5/8] [B,D]2 z z2 | %10
[M:1/8][K:bass] [G,B,] |[M:3/4] [C,C]2 [C,C][C,C] [C,C][C,C] | [F,C]2 [F,C] [F,C]2 [F,CF] | %13
 [G,CE]3 [^G,B,D]3 |[M:5/8] [A,C]-[A,C]- [A,C]3 |[M:1/8] [A,CE] | %16
[M:3/4] [F,CF]2 [F,CF][F,CF] [F,C][F,C] | [G,C]2 [G,E] [F,F]2 [F,CF] | .[CE]2 z B, z2 | [C,C]6 | %20
[M:1/8] [C,G,] |[M:3/4] z2 B,B, CG,, | C,2 G,, C,2 [C,G,C] | z2 B,B, CG,, |[M:5/8] C,2 G,, C,2 | %25
[M:1/8] C, |[M:3/4] B,,2 .B,,2 FB,, | z2 B, C2 [A,CE] | [^G,B,E]2 [E,G,E][E,E]- [E,^F,E][E,G,E] | %29
[M:5/8] E2- [E,E-] [A,E]2 |[M:1/8] A, |[M:3/4] F,2 .F,2 EF, | z2 C B,2 [E,B,] | %33
 [D,B,]2[K:treble] [G,D] [A,D]2 [A,D] | D2 E F3 |[M:1/8] d |[M:3/4][K:bass] C,E, G,[K:treble]C BA | %37
 E,,^G,, B,,E,[K:treble] G^G | E,B,, ^G,,E,,[K:treble] A^G |[M:5/8][K:bass] A,,C,E, A, z | %40
[M:1/8] E, |[M:3/4] F,2 [D,G,] [E,G,]2[K:treble] [G,B,G] | %42
[M:7/8] [CG]2 [CDG] [CEG]3[K:bass] [F,C] | [G,C]2[K:treble] [G,E] [G,F] [G,F]3 |[M:3/4] [CE]6 |] %45
V:3
 x6 | x6 | x6 | x6 |[M:5/8] z2 F, E,2 |[M:1/8] x |[M:3/4] x6 | x6 | x6 |[M:5/8] z2 C B,2 | %10
[M:1/8] x |[M:3/4] x6 | x6 | x6 |[M:5/8] x5 |[M:1/8] x |[M:3/4] x6 | x6 | z D .E2 A,B, | x6 | %20
[M:1/8] x |[M:3/4] x6 | G,2 G, G,2 E | x6 |[M:5/8] G,2 G,[K:bass] G,2 |[M:1/8] x | %26
[M:3/4] [^G,D]2- [G,-D-E][G,-D-E] [G,D][K:treble][G,DE] | [A,C]2 D E2 A | x6 |[M:5/8] z2 A, C2 | %30
[M:1/8] x |[M:3/4] [FA]2- [F-A-d][FA-d] [Ac][DAd] | [DB]2 A ^G2 [Ge] | [Gf]2 [Bf]c- [ce][c^f] | %34
 B2 c d3 |[M:1/8] x |[M:3/4] x6 | x6 | x6 |[M:5/8] x5 |[M:1/8] x |[M:3/4] x6 |[M:7/8] x7 | x7 | %44
[M:3/4] x6 |] %45
V:4
 x6 | x6 | x6 | x6 |[M:5/8] [E,G,]2 D, C,2 |[M:1/8] x |[M:3/4] x6 | x2[K:treble] x4 | x6 | %9
[M:5/8] G2- [A,G-] [G,G]2 |[M:1/8][K:bass] x |[M:3/4] x6 | x6 | x6 |[M:5/8] x5 |[M:1/8] x | %16
[M:3/4] x6 | x6 | G,-[G,-B,] [G,C] [G,F]3 | x6 |[M:1/8] x |[M:3/4] [G,,G,]6 | x6 | [G,,G,]6 | %24
[M:5/8] x5 |[M:1/8] x |[M:3/4] z2 z .B,,3 | A,,6 | z2 z ^G, z2 |[M:5/8] A,2 z z2 |[M:1/8] x | %31
[M:3/4] z2 z .F,3 | E,6 | x2[K:treble] x4 | G,6 |[M:1/8] x |[M:3/4][K:bass] x3[K:treble] x3 | %37
 x4[K:treble] x2 | x4[K:treble] x2 |[M:5/8][K:bass] x5 |[M:1/8] x |[M:3/4] x5[K:treble] x | %42
[M:7/8] x6[K:bass] x | x2[K:treble] x5 |[M:3/4] x6 |] %45

